X:1
T:Title
%%score ( 1 2 ) ( 3 4 )
L:1/8
Q:1/4=102
M:6/8
K:Ab
V:1 treble nm="Grand Piano, Soprano"
V:2 treble 
V:3 bass nm="Choir Pad, Huelva, C. H. Gabriel, 1902"
V:4 bass 
V:1
 [CE][CE][DF] [DG][CA][DB] | [CA] [Ec]2- [Ec] [Ec]2 | [_Gc] [FB]2 [FB] [FA]2 | %3
w: By~Charles~H.~Gabriel,~1902 * * * * *|||
 [DF] [CE]2- [CE]2- [CE]/ z/ | [CE] [DG]2 [DG]GF | [DG] [CA]2- [CA] [EB]2 | %6
w: |||
 [Ec][EB]E- E/ z/ [=DG]2 | [=DF]EB, C _D2 | [CE] [Ec]2 [Ec]ce | [EA][EA][EG]- [EG]2- [EG]/ z/ | %10
w: ||||
 E [Ed]2 [Ed][DF][EG] | [DF] [CE]2- [CE]2- [CE]/ z/ | [CE] [Ee]2 [Ec][CA][DB] | %13
w: |||
 [Ec] [Fd]2 [Fd][DF][EG] | [FA][CE][Ec]- [Ec] [DB]2 | [CA] [CA]2- [CA]3- | [CA]3 z3 |] %17
w: ||||
V:2
 x6 | x6 | x6 | x6 | z3 z D2 | x6 | x6 | x6 | z3 z E2 | x6 | x6 | x6 | x6 | x6 | x6 | x6 | x6 |] %17
V:3
 [A,,A,] [A,,A,]2 [A,,A,] [A,,E,]2 | [A,,E,] [A,,A,]2- [A,,A,] [A,,A,]2 | %2
 [C,A,] [D,A,]2 [D,A,] [D,D]2 | [D,A,] [A,,A,]2- [A,,A,]2- [A,,A,]/ z/ | %4
 [A,,A,] [B,,E,]2 [B,,E,] [E,B,]2 | [E,B,] [F,A,]2- [F,A,] [E,G,]2 | %6
 [A,,A,][B,,G,][B,,G,]- [B,,G,] [B,,B,]2 | z G,2 z3 | A, A,2 A,A,C | %9
 [A,C][E,C][E,B,]- [E,B,]2- [E,B,]/ z/ | [E,G,] [E,B,]2 [E,B,] [E,G,]2 | %11
 [E,G,] [A,,A,]2- [A,,A,]2- [A,,A,]/ z/ | [A,,A,] [A,C]2 A, A,2 | A, [D,A,]2 [D,A,] [D,A,]2 | %14
 [D,A,][E,A,][E,A,]- [E,A,] [E,G,]2 | [A,,E,] [A,,E,]2- [A,,E,]3- | [A,,E,]3 z3 |] %17
V:4
 x6 | x6 | x6 | x6 | x6 | x6 | x6 | [B,,A,] E,2- [E,-A,][E,B,-]>B, | x6 | x6 | x6 | x6 | x6 | x6 | %14
 x6 | x6 | x6 |] %17

